X: 462
T: Sibao langong
L: 1/8
M: 2/4
K: F
F2G A [I:setbarnb 1]| 
G F D C | 
c3f | 
d c A c | 
ff2c | 
d c A G | 
F3G | 
F2z2 | 
G2G2 | 
c2f d | 
c Ac2 | 
G FD2 | 
BB2G | 
B G F D | 
C3D | 
C4 |]

@@@ Tune index: 9336
